X: 79
T: Pollonesse #79
M: 3/4
L: 1/16
K: D
Q:120
d2de fedc d4|D2DE F2ED C2A,2|D2CD E2DE F2E2|DEFG A4 A,4:|
f2fa e2ef d2de|efed cdcB A2F2|F2FE D2Dd c2cd| efed d4 D4:|

